media/costumes/shirt_collar-c.svg

<svg width="71" height="109" viewBox="0 -1 71 109" xmlns="http://www.w3.org/2000/svg"><path fill="#FFF" stroke="#000" stroke-linecap="round" d="M80.4 254.6c3.756-.446 8.316 3.338 9.35 6.65 2.204 6.891 2.527 14.651.5 21.75-.65 2.277-4.647 1.516-7 1.25-2.885-.331-6.922-.14-7.75-2.75-1.849-5.83-.05-12.14 1.25-18 .713-3.199.937-8.216 3.65-8.9z" transform="matrix(1.23277 -.2941 .39251 1.40776 -153.8 -321.25)"/><path fill="#FFF" stroke="#000" stroke-width="2" stroke-linecap="round" d="M153.5 66.1c2.649.289 4.547 3.524 7.25 3.4 2.469.03 3.985-3.07 6.5-3.65 2.762-.634 5.741-.54 8.5.45 3.349 1.208 7.876 2.496 8.75 6.15 2.922 13.447.218 27.643 1.1 41.4.175 3.454 1.556 4.91 1.9 7.45.321 2.376.046 3.058 0 7.2-.36 10.078-.96 20.179-1.5 30.25-.568 10.674-.213 20.872-2 30.85-.435 2.8-1.79-.267-3.25-.65-5.249-1.277-10.634-2.415-16-2.95-8.714-.869-17.516-.936-26.25-1.6-2.183-.166-2.962 1.912-3.15-.2-.75-8.449.353-16.92 1.15-25.45 1.253-13.415 4.251-26.7 5-40.15.547-9.759-1.351-20.002 0-29.85.969-7.176 2.881-14.147 6-20.4 1.183-1.868 4.133-2.445 6-2.25z" transform="matrix(-.85737 0 0 .77396 176.85 -40.9)"/><path fill="#FFF" stroke="#000" stroke-linecap="round" d="M83 255.75c2.817-.564 6.068 2.632 6.75 5.5 1.932 6.959 2.527 14.651.5 21.75-.65 2.277-4.647 1.516-7 1.25-2.885-.331-6.922-.14-7.75-2.75-1.849-5.83-.395-12.224 1.25-18 .947-3.352 3.003-7.1 6.25-7.75z" transform="matrix(1.23986 .2626 -.24869 1.44015 -21 -375.9)"/><g fill="#FFF" stroke="#000" stroke-linecap="round"><path d="M30.857 22.082l8.06-8.488-9.431-7.716-.172-4.287-4.844 8.53 6.216 11.79z" stroke-width=".857"/><path d="M44.895 18.905l-5.871-5.347 2.866-7.723 4.927 3.11.734 2.132-2.656 7.828z" stroke-width=".699"/></g><path fill="none" stroke="#000" stroke-linecap="round" d="M124.5 101l-5.5 99" transform="matrix(-.85737 0 0 .8848 145.55 -75.15)"/><path fill="none" stroke="#000" d="M36.47 18.482a1.07 1.07 0 1 0 0 2.141 1.07 1.07 0 0 0 0-2.141zm.85 13.25a1.07 1.07 0 1 0 0 2.141 1.07 1.07 0 0 0 0-2.141zm.4 16.3a1.07 1.07 0 1 0 0 2.141 1.07 1.07 0 0 0 0-2.141zm1.1 17.8a1.07 1.07 0 1 0 0 2.141 1.07 1.07 0 0 0 0-2.141zm1.05 18.65a1.07 1.07 0 1 0 0 2.141 1.07 1.07 0 0 0 0-2.141z" stroke-width=".857"/></svg>

<svg version="1.1" width="71" height="109" viewBox="0 -1 71 109" xmlns="http://www.w3.org/2000/svg" xmlns:xlink="http://www.w3.org/1999/xlink">
  <!-- Exported by Scratch - http://scratch.mit.edu/ -->
  <g id="ID0.179924001917243">
    <path id="ID0.8950433996506035" fill="#FFFFFF" stroke="#000000" stroke-width="1" stroke-linecap="round" d="M 80.400 254.600 C 84.156 254.154 88.716 257.938 89.750 261.250 C 91.954 268.141 92.277 275.901 90.250 283 C 89.600 285.277 85.603 284.516 83.250 284.250 C 80.365 283.919 76.328 284.110 75.500 281.500 C 73.651 275.670 75.450 269.360 76.750 263.500 C 77.463 260.301 77.687 255.284 80.400 254.600 Z " transform="matrix(1.2327666282653809, -0.29410257935523987, 0.39251405000686646, 1.407763123512268, -153.8, -321.25)"/>
    <path id="ID0.8537395023740828" fill="#FFFFFF" stroke="#000000" stroke-width="2" stroke-linecap="round" d="M 153.500 66.100 C 156.149 66.389 158.047 69.624 160.750 69.500 C 163.219 69.530 164.735 66.430 167.250 65.850 C 170.012 65.216 172.991 65.310 175.750 66.300 C 179.099 67.508 183.626 68.796 184.500 72.450 C 187.422 85.897 184.718 100.093 185.600 113.850 C 185.775 117.304 187.156 118.760 187.500 121.300 C 187.821 123.676 187.546 124.358 187.500 128.500 C 187.140 138.578 186.540 148.679 186 158.750 C 185.432 169.424 185.787 179.622 184 189.600 C 183.565 192.400 182.210 189.333 180.750 188.950 C 175.501 187.673 170.116 186.535 164.750 186 C 156.036 185.131 147.234 185.064 138.500 184.400 C 136.317 184.234 135.538 186.312 135.350 184.200 C 134.600 175.751 135.703 167.280 136.500 158.750 C 137.753 145.335 140.751 132.050 141.500 118.600 C 142.047 108.841 140.149 98.598 141.500 88.750 C 142.469 81.574 144.381 74.603 147.500 68.350 C 148.683 66.482 151.633 65.905 153.500 66.100 Z " transform="matrix(-0.8573749661445618, 0, 0, 0.7739577889442444, 176.85, -40.9)"/>
    <g id="ID0.08513205265626311">
      <path id="ID0.8950433996506035" fill="#FFFFFF" stroke="#000000" stroke-width="1" stroke-linecap="round" d="M 83 255.750 C 85.817 255.186 89.068 258.382 89.750 261.250 C 91.682 268.209 92.277 275.901 90.250 283 C 89.600 285.277 85.603 284.516 83.250 284.250 C 80.365 283.919 76.328 284.110 75.500 281.500 C 73.651 275.670 75.105 269.276 76.750 263.500 C 77.697 260.148 79.753 256.400 83 255.750 Z " transform="matrix(1.2398585081100464, 0.2626034617424011, -0.248686283826828, 1.4401456117630005, -21, -375.9)"/>
    </g>
    <g id="ID0.03982070926576853">
      <path id="ID0.9186757141724229" fill="#FFFFFF" stroke="#000000" stroke-width="1" stroke-linecap="round" d="M 91.200 106.700 L 81.800 96.800 L 92.800 87.800 L 93 82.800 L 98.650 92.750 L 91.400 106.500 Z " transform="matrix(-0.8573749661445618, 0, 0, 0.8573749661445618, 109.05, -69.4)"/>
      <path id="ID0.9186757141724229" fill="#FFFFFF" stroke="#000000" stroke-width="1" stroke-linecap="round" d="M 90.200 104.450 L 81.800 96.800 L 85.900 85.750 L 92.950 90.200 L 94 93.250 L 90.200 104.450 Z " transform="matrix(0.6989469528198242, 0, 0, 0.6989469528198242, -18.15, -54.1)"/>
    </g>
    <path id="ID0.14342549396678805" fill="none" stroke="#000000" stroke-width="1" stroke-linecap="round" d="M 124.500 101 L 119 200 " transform="matrix(-0.8573749661445618, 0, 0, 0.884797215461731, 145.55, -75.15)"/>
    <path id="ID0.5860561807639897" fill="none" stroke="#000000" stroke-width="1" d="M 127.750 106 C 128.095 106 128.407 106.140 128.634 106.366 C 128.860 106.593 129 106.905 129 107.250 C 129 107.595 128.860 107.907 128.634 108.134 C 128.407 108.360 128.095 108.500 127.750 108.500 C 127.405 108.500 127.093 108.360 126.866 108.134 C 126.640 107.907 126.500 107.595 126.500 107.250 C 126.500 106.905 126.640 106.593 126.866 106.366 C 127.093 106.140 127.405 106 127.750 106 Z " transform="matrix(-0.8573749661445618, 0, 0, 0.8573749661445618, 146, -72.4)"/>
    <path id="ID0.5860561807639897" fill="none" stroke="#000000" stroke-width="1" d="M 127.750 106 C 128.095 106 128.407 106.140 128.634 106.366 C 128.860 106.593 129 106.905 129 107.250 C 129 107.595 128.860 107.907 128.634 108.134 C 128.407 108.360 128.095 108.500 127.750 108.500 C 127.405 108.500 127.093 108.360 126.866 108.134 C 126.640 107.907 126.500 107.595 126.500 107.250 C 126.500 106.905 126.640 106.593 126.866 106.366 C 127.093 106.140 127.405 106 127.750 106 Z " transform="matrix(-0.8573749661445618, 0, 0, 0.8573749661445618, 146.85, -59.15)"/>
    <path id="ID0.5860561807639897" fill="none" stroke="#000000" stroke-width="1" d="M 127.750 106 C 128.095 106 128.407 106.140 128.634 106.366 C 128.860 106.593 129 106.905 129 107.250 C 129 107.595 128.860 107.907 128.634 108.134 C 128.407 108.360 128.095 108.500 127.750 108.500 C 127.405 108.500 127.093 108.360 126.866 108.134 C 126.640 107.907 126.500 107.595 126.500 107.250 C 126.500 106.905 126.640 106.593 126.866 106.366 C 127.093 106.140 127.405 106 127.750 106 Z " transform="matrix(-0.8573749661445618, 0, 0, 0.8573749661445618, 147.25, -42.85)"/>
    <path id="ID0.5860561807639897" fill="none" stroke="#000000" stroke-width="1" d="M 127.750 106 C 128.095 106 128.407 106.140 128.634 106.366 C 128.860 106.593 129 106.905 129 107.250 C 129 107.595 128.860 107.907 128.634 108.134 C 128.407 108.360 128.095 108.500 127.750 108.500 C 127.405 108.500 127.093 108.360 126.866 108.134 C 126.640 107.907 126.500 107.595 126.500 107.250 C 126.500 106.905 126.640 106.593 126.866 106.366 C 127.093 106.140 127.405 106 127.750 106 Z " transform="matrix(-0.8573749661445618, 0, 0, 0.8573749661445618, 148.35, -25.05)"/>
    <path id="ID0.5860561807639897" fill="none" stroke="#000000" stroke-width="1" d="M 127.750 106 C 128.095 106 128.407 106.140 128.634 106.366 C 128.860 106.593 129 106.905 129 107.250 C 129 107.595 128.860 107.907 128.634 108.134 C 128.407 108.360 128.095 108.500 127.750 108.500 C 127.405 108.500 127.093 108.360 126.866 108.134 C 126.640 107.907 126.500 107.595 126.500 107.250 C 126.500 106.905 126.640 106.593 126.866 106.366 C 127.093 106.140 127.405 106 127.750 106 Z " transform="matrix(-0.8573749661445618, 0, 0, 0.8573749661445618, 149.4, -6.4)"/>
  </g>
</svg>
